X:600
T:
S:Upptecknad efter vaktmästaresonen Valter Engkvist, Klintehamn.
R:schottis
O:Gotland, Klintehamn
M:2/4
L:1/16
K:A
A2cB A2c2|e2ee e2c2|d2de d2B2|c2cd c2B2|A2cB A2c2|e2ef e2c2|d2de d2B2|A2AA A2
z2::a4 g2f2|e2c2 e4|d2B2 d4|c2A2 c2e2|a4 g2f2|e2c2 e4|e2dc d2G2|A6 z2:|

